svg/fluentui-system-icons/ic_fluent_multiselect_rtl_24_filled.svg

<svg width="24" height="24" viewBox="0 0 24 24" fill="none" xmlns="http://www.w3.org/2000/svg">
<path d="M21.7076 3.29289C21.3171 2.90237 20.6839 2.90237 20.2934 3.29289L19.0005 4.58579L18.7076 4.29289C18.3171 3.90237 17.6839 3.90237 17.2934 4.29289C16.9029 4.68342 16.9029 5.31658 17.2934 5.70711L18.2934 6.70711C18.6839 7.09763 19.3171 7.09763 19.7076 6.70711L21.7076 4.70711C22.0981 4.31658 22.0981 3.68342 21.7076 3.29289ZM3 16.9933H14.0039C14.5562 16.9933 15.0039 17.441 15.0039 17.9933C15.0039 18.5061 14.6179 18.9288 14.1205 18.9866L14.0039 18.9933H3C2.44772 18.9933 2 18.5456 2 17.9933C2 17.4805 2.38604 17.0578 2.88338 17L3 16.9933ZM3 11H14.0039C14.5562 11 15.0039 11.4477 15.0039 12C15.0039 12.5128 14.6179 12.9355 14.1205 12.9933L14.0039 13H3C2.44772 13 2 12.5523 2 12C2 11.4872 2.38604 11.0645 2.88338 11.0067L3 11ZM3 5.00004H14.0039C14.5562 5.00004 15.0039 5.44775 15.0039 6.00004C15.0039 6.51287 14.6179 6.93555 14.1205 6.99331L14.0039 7.00004H3C2.44772 7.00004 2 6.55232 2 6.00004C2 5.4872 2.38604 5.06453 2.88338 5.00677L3 5.00004ZM20.2934 16.2929C20.6839 15.9024 21.3171 15.9024 21.7076 16.2929C22.0981 16.6834 22.0981 17.3166 21.7076 17.7071L19.7076 19.7071C19.3171 20.0976 18.6839 20.0976 18.2934 19.7071L17.2934 18.7071C16.9029 18.3166 16.9029 17.6834 17.2934 17.2929C17.6839 16.9024 18.3171 16.9024 18.7076 17.2929L19.0005 17.5858L20.2934 16.2929Z" fill="#212121"/>
</svg>

<svg xmlns="http://www.w3.org/2000/svg" width="24" height="24"><path d="M21.708 3.293a1 1 0 0 0-1.415 0L19 4.586l-.292-.293a1 1 0 1 0-1.415 1.414l1 1a1 1 0 0 0 1.415 0l2-2a1 1 0 0 0 0-1.414ZM3 16.993h11.004a1 1 0 0 1 .117 1.994l-.117.006H3A1 1 0 0 1 2.883 17L3 16.993ZM3 11h11.004a1 1 0 0 1 .117 1.993l-.117.007H3a1 1 0 0 1-.117-1.993L3 11Zm0-6h11.004a1 1 0 0 1 .117 1.993L14.003 7H3a1 1 0 0 1-.117-1.993L3 5Zm17.293 11.293a1 1 0 0 1 1.415 1.414l-2 2a1 1 0 0 1-1.415 0l-1-1a1 1 0 0 1 1.415-1.414l.293.293 1.292-1.293Z"/></svg>
